v2tun.svg

<svg viewBox="0 0 24 24" xmlns="http://www.w3.org/2000/svg"><defs><linearGradient gradientTransform="matrix(1 0 0 1 0 0)" gradientUnits="userSpaceOnUse" id="LinearGradient" x1="0.125" x2="23.875" y1="11.9688" y2="11.9688"><stop offset="0" stop-color="#e94420"/><stop offset="1" stop-color="#3e68ff"/></linearGradient></defs><path d="M0.125 1.6875L12 22.25L15.9375 15.4375L7.96875 1.6875L0.125 1.6875ZM16.1562 1.6875L19.9688 3.90625C19.9846 3.90625 19.9913 3.92562 20 3.9375C20.0086 3.94223 20.0312 3.92693 20.0312 3.9375L20.0312 8.375L23.875 1.6875L16.1562 1.6875Z" fill="url(#LinearGradient)"/></svg>

<svg viewBox="0 0 24 24" xmlns="http://www.w3.org/2000/svg"><defs><linearGradient gradientUnits="userSpaceOnUse" id="a" x1=".125" x2="23.875" y1="11.969" y2="11.969"><stop offset="0" stop-color="#e94420"/><stop offset="1" stop-color="#3e68ff"/></linearGradient></defs><path d="M.125 1.688 12 22.25l3.938-6.813-7.97-13.75H.126Zm16.031 0 3.813 2.218c.016 0 .022.02.031.031.009.005.031-.01.031 0v4.438l3.844-6.688h-7.719Z" fill="url(#a)"/></svg>
